img/check__icon--yellow.svg

<svg width="16" height="14" viewBox="0 0 16 14" fill="none" xmlns="http://www.w3.org/2000/svg">
<path d="M15.3013 0.107234C14.5793 -0.277858 13.774 0.46482 13.3019 0.904925C12.2189 1.95018 11.3026 3.16047 10.2751 4.26073C9.13651 5.47102 8.08128 6.68131 6.91497 7.86414C6.24851 8.52429 5.52651 9.23946 5.0822 10.0647C4.08251 9.10189 3.22166 8.05664 2.11089 7.20398C1.30558 6.59883 -0.0273422 6.15873 0.000427067 7.61658C0.0559656 9.51458 1.74989 11.5501 2.99951 12.8428C3.52712 13.393 4.22135 13.9706 5.02666 13.9981C5.99859 14.0531 6.99828 12.8978 7.58143 12.2652C8.60894 11.1649 9.44202 9.92708 10.3861 8.79936C11.608 7.314 12.8576 5.85611 14.0517 4.34325C14.8014 3.40802 17.1618 1.09743 15.3013 0.107234Z" fill="#FED230"/>
</svg>

<svg width="16" height="14" fill="none" xmlns="http://www.w3.org/2000/svg"><path d="M15.301.107c-.722-.385-1.527.358-2 .798C12.22 1.95 11.304 3.16 10.276 4.26c-1.138 1.21-2.194 2.42-3.36 3.603-.666.66-1.388 1.375-1.833 2.2-1-.962-1.86-2.007-2.971-2.86-.805-.605-2.138-1.045-2.11.413C.055 9.515 1.75 11.55 3 12.843c.527.55 1.221 1.128 2.027 1.155.972.055 1.971-1.1 2.554-1.733 1.028-1.1 1.861-2.338 2.805-3.466 1.222-1.485 2.472-2.943 3.666-4.456.75-.935 3.11-3.246 1.25-4.236z" fill="#FED230"/></svg>
